packages/match-logos/mono/svg/gocardless.svg

<svg fill="none" height="22" viewBox="0 0 212 22" width="212" xmlns="http://www.w3.org/2000/svg" xmlns:xlink="http://www.w3.org/1999/xlink"><clipPath id="a"><path d="m0 0h211.2v22h-211.2z"/></clipPath><g clip-path="url(#a)"><path d="m11 13.4634h4.752v2.992c-1.32.88-2.816 1.32-4.4 1.232-3.696 0-6.424-2.816-6.424-6.776 0-3.60804 2.728-6.60004 6.072-6.60004 2.024 0 4.048.704 5.544 2.2l2.904-3.608c-2.2-1.848-4.488-2.90399555-8.36-2.90399555-5.984-.08799995-11 4.75199555-11.088 10.82403555v.264c0 6.248 4.576 10.912 11.176 10.912 3.344 0 6.512-1.232 9.064-3.344v-9.24004h-9.24zm23.672-13.46403555c-6.072-.17600045-11.088 4.57599555-11.264 10.56003555v.44c0 5.984 4.752 10.912 11.264 10.912 6.072.176 11.088-4.576 11.264-10.56v-.44c-.088-5.98404-4.752-10.91203555-11.264-10.91203555zm6.336 11.00003555c.176 3.52-2.552 6.512-6.072 6.688h-.352c-3.52 0-6.424-2.904-6.424-6.424v-.176c-.176-3.52003 2.552-6.51204 5.984-6.68804h.352c3.52 0 6.424 2.904 6.424 6.42404.088 0 .088.088.088.176zm18.392 8.712c-4.664 0-8.272-3.872-8.272-8.712 0-4.84004 3.52-8.80004 8.272-8.80004 2.552 0 4.928 1.056 6.688 2.904l1.672-1.76c-2.2-2.2-5.192-3.4319955-8.272-3.34399555-6.248 0-10.736 4.92799555-10.736 11.00003555 0 6.072 4.576 10.912 10.648 10.912 3.256.088 6.336-1.32 8.448-3.784l-1.584-1.496c-2.024 1.936-3.96 3.08-6.864 3.08zm20.064-19.448036-9.68 21.384036h2.464l2.552-5.632h11.528l2.552 5.632h2.552l-9.68-21.384036zm-3.696 13.552036 4.84-10.82404 4.752 10.82404zm35.816-7.04004c0-3.784-2.992-6.335996-7.656-6.335996h-9.152v21.208036h2.376v-8.272h6.072l6.16 8.272h2.992l-6.512-8.624c3.344-.704 5.72-2.728 5.72-6.24804zm-14.344 4.48804v-8.62404h6.512c3.344 0 5.456 1.584 5.456 4.224 0 2.728-2.288 4.40004-5.456 4.40004zm26.4-10.824036h-7.392v21.208036h7.392c6.688 0 11.264-4.664 11.264-10.648 0-5.98404-4.664-10.560036-11.264-10.560036zm0 18.920036h-4.928v-16.80804h4.928c5.368 0 8.8 3.696 8.8 8.44804 0 4.752-3.52 8.36-8.8 8.36zm18.128-19.008036h-2.376v21.296036h14.344v-2.288h-11.968zm17.864 11.616036h11.616v-2.11204h-11.616v-7.304h13.024v-2.199996h-15.4v21.296036h15.488v-2.2h-13.112zm24.992-2.11204c-4.752-.968-5.808-2.112-5.808-4.136 0-1.936 1.76-3.432 4.488-3.432 2.288 0 4.4.792 6.072 2.288l1.408-1.848c-2.112-1.759996-4.752-2.6399955-7.48-2.551996-4.048 0-6.952 2.375996-6.952 5.807996 0 3.52 2.288 5.10404 7.128 6.16004 4.488.968 5.544 2.112 5.544 4.048 0 2.2-1.848 3.696-4.752 3.696-2.728 0-5.368-1.056-7.216-2.992l-1.496 1.76c2.288 2.2 5.368 3.432 8.624 3.432 4.224 0 7.216-2.376 7.216-5.984.176-3.52-2.024-5.28-6.776-6.24804zm18.832 0c-4.664-.968-5.808-2.112-5.808-4.136 0-1.936 1.76-3.432 4.488-3.432 2.288 0 4.4.792 6.072 2.288l1.408-1.848c-2.112-1.759996-4.752-2.6399955-7.48-2.551996-4.048 0-7.04 2.375996-7.04 5.807996 0 3.52 2.288 5.10404 7.128 6.16004 4.488.968 5.544 2.112 5.544 4.048 0 2.2-1.848 3.696-4.752 3.696-2.728 0-5.368-1.056-7.216-2.992l-1.496 1.76c2.376 2.2 5.456 3.432 8.624 3.344 4.224 0 7.216-2.376 7.216-5.984.264-3.432-1.936-5.192-6.688-6.16004z" fill="#1f304c"/></g></svg>

<svg width="212" height="22" viewBox="0 0 212 22" fill="none" xmlns="http://www.w3.org/2000/svg">
<g clip-path="url(#clip0)">
<path d="M11 13.4634H15.752V16.4554C14.432 17.3354 12.936 17.7754 11.352 17.6874C7.656 17.6874 4.928 14.8714 4.928 10.9114C4.928 7.30336 7.656 4.31136 11 4.31136C13.024 4.31136 15.048 5.01536 16.544 6.51136L19.448 2.90336C17.248 1.05536 14.96 -0.000635548 11.088 -0.000635548C5.104 -0.0886355 0.088 4.75136 0 10.8234V11.0874C0 17.3354 4.576 21.9994 11.176 21.9994C14.52 21.9994 17.688 20.7674 20.24 18.6554V9.41536H11V13.4634ZM34.672 -0.000635548C28.6 -0.176636 23.584 4.57536 23.408 10.5594V10.9994C23.408 16.9834 28.16 21.9114 34.672 21.9114C40.744 22.0874 45.76 17.3354 45.936 11.3514V10.9114C45.848 4.92736 41.184 -0.000635548 34.672 -0.000635548ZM41.008 10.9994C41.184 14.5194 38.456 17.5114 34.936 17.6874H34.584C31.064 17.6874 28.16 14.7834 28.16 11.2634V11.0874C27.984 7.56737 30.712 4.57536 34.144 4.39936H34.496C38.016 4.39936 40.92 7.30336 40.92 10.8234C41.008 10.8234 41.008 10.9114 41.008 10.9994ZM59.4 19.7114C54.736 19.7114 51.128 15.8394 51.128 10.9994C51.128 6.15936 54.648 2.19936 59.4 2.19936C61.952 2.19936 64.328 3.25536 66.088 5.10336L67.76 3.34336C65.56 1.14336 62.568 -0.0886355 59.488 -0.000635548C53.24 -0.000635548 48.752 4.92736 48.752 10.9994C48.752 17.0714 53.328 21.9114 59.4 21.9114C62.656 21.9994 65.736 20.5914 67.848 18.1274L66.264 16.6314C64.24 18.5674 62.304 19.7114 59.4 19.7114ZM79.464 0.263364L69.784 21.6474H72.248L74.8 16.0154H86.328L88.88 21.6474H91.432L81.752 0.263364H79.464ZM75.768 13.8154L80.608 2.99136L85.36 13.8154H75.768ZM111.584 6.77536C111.584 2.99136 108.592 0.439364 103.928 0.439364H94.776V21.6474H97.152V13.3754H103.224L109.384 21.6474H112.376L105.864 13.0234C109.208 12.3194 111.584 10.2954 111.584 6.77536ZM97.24 11.2634V2.63936H103.752C107.096 2.63936 109.208 4.22336 109.208 6.86336C109.208 9.59136 106.92 11.2634 103.752 11.2634H97.24ZM123.64 0.439364H116.248V21.6474H123.64C130.328 21.6474 134.904 16.9834 134.904 10.9994C134.904 5.01536 130.24 0.439364 123.64 0.439364ZM123.64 19.3594H118.712V2.55136H123.64C129.008 2.55136 132.44 6.24736 132.44 10.9994C132.44 15.7514 128.92 19.3594 123.64 19.3594ZM141.768 0.351364H139.392V21.6474H153.736V19.3594H141.768V0.351364ZM159.632 11.9674H171.248V9.85536H159.632V2.55136H172.656V0.351364H157.256V21.6474H172.744V19.4474H159.632V11.9674ZM184.624 9.85536C179.872 8.88736 178.816 7.74336 178.816 5.71936C178.816 3.78336 180.576 2.28736 183.304 2.28736C185.592 2.28736 187.704 3.07936 189.376 4.57536L190.784 2.72736C188.672 0.967364 186.032 0.0873645 183.304 0.175364C179.256 0.175364 176.352 2.55136 176.352 5.98336C176.352 9.50336 178.64 11.0874 183.48 12.1434C187.968 13.1114 189.024 14.2554 189.024 16.1914C189.024 18.3914 187.176 19.8874 184.272 19.8874C181.544 19.8874 178.904 18.8314 177.056 16.8954L175.56 18.6554C177.848 20.8554 180.928 22.0874 184.184 22.0874C188.408 22.0874 191.4 19.7114 191.4 16.1034C191.576 12.5834 189.376 10.8234 184.624 9.85536ZM203.456 9.85536C198.792 8.88736 197.648 7.74336 197.648 5.71936C197.648 3.78336 199.408 2.28736 202.136 2.28736C204.424 2.28736 206.536 3.07936 208.208 4.57536L209.616 2.72736C207.504 0.967364 204.864 0.0873645 202.136 0.175364C198.088 0.175364 195.096 2.55136 195.096 5.98336C195.096 9.50336 197.384 11.0874 202.224 12.1434C206.712 13.1114 207.768 14.2554 207.768 16.1914C207.768 18.3914 205.92 19.8874 203.016 19.8874C200.288 19.8874 197.648 18.8314 195.8 16.8954L194.304 18.6554C196.68 20.8554 199.76 22.0874 202.928 21.9994C207.152 21.9994 210.144 19.6234 210.144 16.0154C210.408 12.5834 208.208 10.8234 203.456 9.85536Z" fill="#1F304C"/>
</g>
<defs>
<clipPath id="clip0">
<rect width="211.2" height="22" fill="white"/>
</clipPath>
</defs>
</svg>
